X: 26719
T: Mike MacDougall's
R: jig
M: 6/8
K: Gmajor
E|DB,D GAB|BAB edB|BdB GAB|c/c/c B AGE|
DB,D GAB|BAB def|gag edB|1 AGF G2:|2 AGF G||
Bd|g2 g dBd|gab agf|g2 e dBd|gab a/a/a b|
age dBd|g2 g aga|bag edB|1 AGF G:|2 AGF G2||

